svg/SJJB-OpenStreetMapIcons/amenity/prison.svg

<?xml version="1.0" encoding="UTF-8" standalone="no"?>
<!-- Created with Inkscape (http://www.inkscape.org/) -->
<svg
   xmlns:dc="http://purl.org/dc/elements/1.1/"
   xmlns:cc="http://creativecommons.org/ns#"
   xmlns:rdf="http://www.w3.org/1999/02/22-rdf-syntax-ns#"
   xmlns:svg="http://www.w3.org/2000/svg"
   xmlns="http://www.w3.org/2000/svg"
   xmlns:sodipodi="http://sodipodi.sourceforge.net/DTD/sodipodi-0.dtd"
   xmlns:inkscape="http://www.inkscape.org/namespaces/inkscape"
   version="1.0"
   width="580"
   height="580"
   id="svg2"
   sodipodi:version="0.32"
   inkscape:version="0.46"
   sodipodi:docname="amenity_prison.svg"
   inkscape:output_extension="org.inkscape.output.svg.inkscape">
  <metadata
     id="metadata10">
    <rdf:RDF>
      <cc:Work
         rdf:about="">
        <dc:format>image/svg+xml</dc:format>
        <dc:type
           rdf:resource="http://purl.org/dc/dcmitype/StillImage" />
        <cc:license
           rdf:resource="http://web.resource.org/cc/PublicDomain" />
        <dc:language>en</dc:language>
      </cc:Work>
    </rdf:RDF>
  </metadata>
  <sodipodi:namedview
     inkscape:window-height="1005"
     inkscape:window-width="1280"
     inkscape:pageshadow="2"
     inkscape:pageopacity="0.0"
     guidetolerance="10.0"
     gridtolerance="10.0"
     objecttolerance="10.0"
     borderopacity="1.0"
     bordercolor="#666666"
     pagecolor="#ffffff"
     id="base"
     showgrid="false"
     inkscape:zoom="1.2807306"
     inkscape:cx="297.49911"
     inkscape:cy="295.82776"
     inkscape:window-x="112"
     inkscape:window-y="18"
     inkscape:current-layer="svg2" />
  <defs
     id="defs4">
    <inkscape:perspective
       sodipodi:type="inkscape:persp3d"
       inkscape:vp_x="0 : 290 : 1"
       inkscape:vp_y="0 : 1000 : 0"
       inkscape:vp_z="580 : 290 : 1"
       inkscape:persp3d-origin="290 : 193.33333 : 1"
       id="perspective12" />
    <style
       type="text/css"
       id="style6">
   
    .fil0 {fill:#EF7900}
   
  </style>
    <inkscape:perspective
       id="perspective6807"
       inkscape:persp3d-origin="29.116032 : 19.410688 : 1"
       inkscape:vp_z="58.232063 : 29.116032 : 1"
       inkscape:vp_y="0 : 1000 : 0"
       inkscape:vp_x="0 : 29.116032 : 1"
       sodipodi:type="inkscape:persp3d" />
    <inkscape:perspective
       id="perspective6954"
       inkscape:persp3d-origin="290 : 193.33333 : 1"
       inkscape:vp_z="580 : 290 : 1"
       inkscape:vp_y="0 : 1000 : 0"
       inkscape:vp_x="0 : 290 : 1"
       sodipodi:type="inkscape:persp3d" />
    <marker
       viewBox="0 0 10 10"
       refY="5"
       refX="10"
       orient="auto"
       markerWidth="4"
       markerUnits="strokeWidth"
       markerHeight="3"
       id="ArrowStart">
      <path
         id="path2295"
         d="M 10 0 L 0 5 L 10 10 z" />
    </marker>
    <marker
       viewBox="0 0 10 10"
       refY="5"
       refX="0"
       orient="auto"
       markerWidth="4"
       markerUnits="strokeWidth"
       markerHeight="3"
       id="ArrowEnd">
      <path
         id="path2292"
         d="M 0 0 L 10 5 L 0 10 z" />
    </marker>
    <inkscape:perspective
       id="perspective7597"
       inkscape:persp3d-origin="178.5405 : 158.483 : 1"
       inkscape:vp_z="357.08099 : 237.7245 : 1"
       inkscape:vp_y="0 : 1000 : 0"
       inkscape:vp_x="0 : 237.7245 : 1"
       sodipodi:type="inkscape:persp3d" />
  </defs>
  <g
     id="g1327">
    <path
       d="M 66.275,1.768 C 24.94,1.768 1.704,23.139 1.704,66.804 L 1.704,516.927 C 1.704,557.771 22.598,579.156 63.896,579.156 L 515.92,579.156 C 557.227,579.156 578.149,558.84 578.149,516.927 L 578.149,66.804 C 578.149,24.203 557.227,1.768 514.627,1.768 C 514.624,1.768 66.133,1.625 66.275,1.768 z"
       style="fill:#111111;stroke:#eeeeee;stroke-width:3.40799999"
       id="path1329" />
  </g>
  <g
     id="g2319"
     transform="translate(879.29125,36.805119)">
    <path
       id="path2323"
       style="fill:#ffffff;stroke:none"
       d="" />
  </g>
  <g
     id="g2325"
     transform="translate(879.29125,36.805119)">
    <path
       id="path2329"
       style="fill:#ffffff;stroke:none"
       d="" />
  </g>
  <g
     id="g8776"
     transform="matrix(1.871692,0,0,1.871692,79.48837,-14.535408)"
     style="opacity:0.5">
    <path
       style="font-size:40px;font-style:normal;font-variant:normal;font-weight:normal;font-stretch:normal;text-align:start;line-height:125%;writing-mode:lr-tb;text-anchor:start;fill:#ffffff;fill-opacity:1;stroke:none;stroke-width:1px;stroke-linecap:butt;stroke-linejoin:miter;stroke-opacity:1;font-family:NPSPICT3;-inkscape-font-specification:NPSPICT3"
       d="M 291.78125,122.54565 C 274.64206,122.54628 259.6956,128.76454 247,141.1394 C 234.30554,153.51548 227.96936,168.53674 227.96875,186.29565 C 227.96935,204.07506 234.30555,219.20194 247,231.5769 C 259.6956,243.95287 274.64205,250.10865 291.78125,250.10815 C 292.41322,250.10816 293.0311,250.09255 293.65625,250.0769 C 294.28848,250.09291 294.9233,250.10817 295.5625,250.10815 C 312.70171,250.10865 327.58565,243.95288 340.28125,231.5769 C 352.97571,219.20194 359.3119,204.07506 359.3125,186.29565 C 359.31192,168.53674 352.9757,153.51548 340.28125,141.1394 C 327.58566,128.76454 312.7017,122.54628 295.5625,122.54565 C 294.92349,122.54567 294.28829,122.59211 293.65625,122.60815 C 293.0313,122.59247 292.41303,122.54567 291.78125,122.54565 z M 243.21875,254 C 239.36197,254.0001 235.84975,254.41303 232.71875,255.25 C 230.65895,255.06201 228.58871,254.9819 226.5,255.03125 C 196.49512,255.74056 172.71737,280.65091 173.40625,310.65625 L 174.53125,437.4375 C 174.41804,457.05116 184.88118,475.19811 201.90625,484.9375 C 205.38791,486.92922 209.03987,488.49405 212.78125,489.65625 L 212.78125,506.25 L 212.78125,511.0625 L 293.65625,508.6875 L 374.5625,511.0625 L 374.5625,506.25 L 374.5625,487.21875 C 376.37867,486.3931 378.13726,485.47284 379.875,484.4375 C 396.72503,474.39835 406.86656,456.07734 406.40625,436.46875 L 405.3125,309.65625 C 405.3897,294.96441 399.51504,280.8555 389.03125,270.5625 C 379.58668,261.28982 367.11676,255.83412 354,255.09375 C 351.02528,254.36008 347.73592,254.00009 344.125,254 L 243.21875,254 z"
       transform="matrix(0.6171011,0,0,0.6171011,-62.206059,-26.591585)"
       id="flowRoot3192"
       sodipodi:nodetypes="cccsscssccsccccsccscccccccsccsccc" />
  </g>
  <path
     style="opacity:1;fill:#ffffff;fill-opacity:1;stroke:#ffffff;stroke-width:13.24478531;stroke-linecap:round;stroke-linejoin:round;stroke-miterlimit:4;stroke-dashoffset:0;stroke-opacity:1"
     d="M 384.53125 47.71875 C 382.2818 47.735165 380.29579 48.009157 378.9375 49.03125 C 378.9375 170.52566 378.9375 292.03684 378.9375 413.53125 C 380.08839 403.25162 385.54703 392.90953 396.03125 390.6875 C 396.03125 276.43234 396.03125 162.16141 396.03125 47.90625 C 392.71378 48.420696 388.28033 47.691392 384.53125 47.71875 z M 378.9375 421.875 C 378.9375 461.74816 378.9375 501.62684 378.9375 541.5 C 384.24545 540.67689 392.40912 543.10058 396.03125 540.375 C 396.03125 508.60563 396.03125 476.83187 396.03125 445.0625 C 385.88583 443.46109 379.44908 431.63095 378.9375 421.875 z "
     id="path8836" />
  <path
     style="opacity:1;fill:#ffffff;fill-opacity:1;stroke:#ffffff;stroke-width:13.24478531;stroke-linecap:round;stroke-linejoin:round;stroke-miterlimit:4;stroke-dashoffset:0;stroke-opacity:1"
     d="M 211.84375 47.71875 C 209.5943 47.735165 207.6083 48.009157 206.25 49.03125 C 206.25 162.8906 206.25 276.76566 206.25 390.625 C 215.22499 391.91586 221.18648 401.3026 222.8125 409.8125 C 223.03979 410.82753 223.2041 411.87292 223.34375 412.9375 C 223.34375 291.26602 223.34375 169.57773 223.34375 47.90625 C 220.02628 48.420696 215.59283 47.691392 211.84375 47.71875 z M 223.34375 423.09375 C 222.0255 433.03104 216.79986 442.45072 206.6875 445.0625 C 206.54072 445.08382 206.39561 445.07654 206.25 445.09375 C 206.25 477.22769 206.25 509.36606 206.25 541.5 C 211.55795 540.67689 219.72163 543.10058 223.34375 540.375 C 223.34375 501.28305 223.34375 462.1857 223.34375 423.09375 z "
     id="path9418" />
  <path
     id="path9497"
     d="M 510.92768,541.48712 C 516.23562,540.66401 524.42166,543.08888 528.04379,540.3633 C 528.04379,376.2146 528.04379,212.0659 528.04379,47.917207 C 522.73584,48.740319 514.5498,46.315451 510.92768,49.041032 C 510.92768,213.18973 510.92768,377.33843 510.92768,541.48712 z"
     style="opacity:1;fill:#ffffff;fill-opacity:1;stroke:#ffffff;stroke-width:13.24478531;stroke-linecap:round;stroke-linejoin:round;stroke-miterlimit:4;stroke-dashoffset:0;stroke-opacity:1" />
  <path
     id="path9499"
     d="M 54.23746,541.48712 C 59.54541,540.66401 67.73145,543.08888 71.35357,540.3633 C 71.35357,376.2146 71.35357,212.0659 71.35357,47.917207 C 66.04563,48.740319 57.85959,46.315451 54.23746,49.041032 C 54.23746,213.18973 54.23746,377.33843 54.23746,541.48712 z"
     style="opacity:1;fill:#ffffff;fill-opacity:1;stroke:#ffffff;stroke-width:13.24478531;stroke-linecap:round;stroke-linejoin:round;stroke-miterlimit:4;stroke-dashoffset:0;stroke-opacity:1" />
  <path
     style="opacity:1;fill:#ffffff;fill-opacity:1;stroke:#ffffff;stroke-width:13.05488682;stroke-linecap:round;stroke-linejoin:round;stroke-miterlimit:4;stroke-dashoffset:0;stroke-opacity:1"
     d="M 528.30897,46.566526 C 527.51807,41.199686 529.84805,32.922824 527.22912,29.260518 C 369.50361,29.260518 211.77809,29.260518 54.052584,29.260518 C 54.843486,34.627348 52.513502,42.90421 55.132429,46.566526 C 212.85795,46.566526 370.58346,46.566526 528.30897,46.566526 z"
     id="path9518" />
  <path
     id="path9520"
     d="M 528.30897,552.56653 C 527.51807,547.19969 529.84805,538.92282 527.22912,535.26052 C 369.50361,535.26052 211.77809,535.26052 54.052584,535.26052 C 54.843486,540.62735 52.513502,548.90421 55.132429,552.56653 C 212.85795,552.56653 370.58346,552.56653 528.30897,552.56653 z"
     style="opacity:1;fill:#ffffff;fill-opacity:1;stroke:#ffffff;stroke-width:13.05488682;stroke-linecap:round;stroke-linejoin:round;stroke-miterlimit:4;stroke-dashoffset:0;stroke-opacity:1" />
</svg>

<svg xmlns="http://www.w3.org/2000/svg" viewBox="0 0 580 580"><path d="m66.28 1.768c-41.34 0-64.57 21.371-64.57 65.04v450.12c0 40.844 20.894 62.23 62.19 62.23h452.02c41.31 0 62.23-20.316 62.23-62.23v-450.12c0-42.601-20.922-65.04-63.52-65.04-.003 0-448.49-.143-448.35 0z" fill="#111" stroke="#eee" stroke-width="3.408"/><g opacity=".5"><path d="m291.78 122.55c-17.14.0001-32.09 6.219-44.781 18.594-12.694 12.376-19.03 27.397-19.03 45.16.0001 17.779 6.337 32.906 19.03 45.28 12.696 12.376 27.642 18.532 44.781 18.531.632 0 1.25-.016 1.875-.031.632.016 1.267.031 1.906.031 17.14.0001 32.02-6.155 44.719-18.531 12.694-12.375 19.03-27.502 19.03-45.28-.0001-17.759-6.337-32.78-19.03-45.16-12.696-12.375-27.58-18.593-44.719-18.594-.639 0-1.274.046-1.906.063-.625-.016-1.243-.062-1.875-.063m-48.563 131.45c-3.857 0-7.369.413-10.5 1.25-2.06-.188-4.13-.268-6.219-.219-30 .709-53.783 25.62-53.09 55.625l1.125 126.78c-.113 19.614 10.35 37.761 27.375 47.5 3.482 1.992 7.134 3.557 10.875 4.719v16.594 4.813l80.87-2.375 80.906 2.375v-4.813-19.03c1.816-.826 3.575-1.746 5.313-2.781 16.85-10.04 26.992-28.36 26.531-47.969l-1.094-126.81c.077-14.692-5.797-28.801-16.281-39.09-9.445-9.273-21.914-14.728-35.03-15.469-2.975-.734-6.264-1.094-9.875-1.094h-100.91" transform="matrix(1.15502 0 0 1.15502-36.942-64.31)" fill="#fff"/></g><g fill="#fff" stroke="#fff" stroke-linejoin="round" stroke-linecap="round"><g stroke-width="13.245"><path d="m384.53 47.719c-2.249.016-4.235.29-5.594 1.313 0 121.49 0 243.01 0 364.5 1.151-10.28 6.61-20.622 17.09-22.844 0-114.26 0-228.53 0-342.78-3.317.514-7.751-.215-11.5-.188zm-5.594 374.16c0 39.873 0 79.75 0 119.62 5.308-.823 13.472 1.601 17.09-1.125 0-31.769 0-63.54 0-95.31-10.145-1.601-16.582-13.432-17.09-23.19z" opacity="1"/><path d="m211.84 47.719c-2.249.016-4.235.29-5.594 1.313 0 113.86 0 227.73 0 341.59 8.975 1.291 14.936 10.678 16.563 19.19.227 1.015.392 2.06.531 3.125 0-121.67 0-243.36 0-365.03-3.317.514-7.751-.215-11.5-.188zm11.5 375.37c-1.318 9.937-6.544 19.357-16.656 21.969-.147.021-.292.014-.438.031 0 32.13 0 64.27 0 96.41 5.308-.823 13.472 1.601 17.09-1.125 0-39.09 0-78.19 0-117.28z" opacity="1"/><path d="m510.93 541.49c5.308-.823 13.494 1.602 17.12-1.124 0-164.15 0-328.3 0-492.45-5.308.823-13.494-1.602-17.12 1.124 0 164.15 0 328.3 0 492.45z" opacity="1"/><path d="m54.24 541.49c5.308-.823 13.494 1.602 17.12-1.124 0-164.15 0-328.3 0-492.45-5.308.823-13.494-1.602-17.12 1.124 0 164.15 0 328.3 0 492.45z" opacity="1"/></g><g stroke-width="13.05"><path d="m528.31 46.567c-.791-5.367 1.539-13.644-1.08-17.306-157.73 0-315.45 0-473.18 0 .791 5.367-1.539 13.644 1.08 17.306 157.73 0 315.45 0 473.18 0z" opacity="1"/><path d="m528.31 552.57c-.791-5.367 1.539-13.644-1.08-17.306-157.73 0-315.45 0-473.18 0 .791 5.367-1.539 13.644 1.08 17.306 157.73 0 315.45 0 473.18 0z" opacity="1"/></g></g></svg>
